X:126
T:Gussondall Bay. WM.126
M:6/8
L:1/8
Q:3/8=120
S:Wm.Mittell’s MS, New Romney,Kent,1799
R:.Jig
O:England
A:Kent
N:Falkland Islands..
Z:vmp.Chris Partington
K:F
f2d cAc|faf gec|f2d cAc|fafg3|!
f2d cAc|faf gec|dBd cAc|BGEF3:|!
|:A2c cAF|dBd cAF|A2c cAF|dBdc3:|!
|:A2c cAF|dBd cAc|afa gec|dfef3:|

